X:68
T:Brahevisan
R:Visa
S:Efter Blinda Janne
O:Gränna, Småland
N:Blinda Jannes namn var Jaen Knut Johansson Wristel
B:Svenska Låtar Småland
N:SvL Sm. 68
Z:Jonas Brunskog
M:C
L:1/8
K:G
g2|e3 c geed|B2 d4 d2|e3 A cc FF|G4 z2||
d2|d3 d eddB|F B4 B2|c3 c ddff|g6||

